svgs/1F9B6-1F3FD.svg

<svg xmlns="http://www.w3.org/2000/svg" version="1.1" xmlns:xlink="http://www.w3.org/1999/xlink" preserveAspectRatio="none" x="0px" y="0px" width="72px" height="72px" viewBox="0 0 72 72">
<defs>
<g id="Layer0_0_FILL">
<path fill="#CC9970" stroke="none" d="
M 63.95 10.35
Q 63.546875 6.38203125 61.8 5.85 53.4826171875 3.8890625 45.7 5.85 42.9451171875 6.7787109375 42.75 11.2
L 42.3 29.65
Q 42.5240234375 37.0279296875 33.45 43.7
L 26.25 50
Q 20.6380859375 54.621484375 16.05 54.7 11.4984375 54.7765625 10.05 55 8.6158203125 55.236328125 7.9 55.6 7.228125 55.94765625 6.55 56.2 5.88359375 56.5041015625 4.4 56.45 2.9134765625 56.445703125 2.55 58.1 2.1818359375 59.8126953125 3.7 61.15 3.654296875 63.0384765625 6.05 64.55 6.4556640625 66.0421875 9.2 65.95
L 9.2 66.1
Q 9.7341796875 67.5587890625 12.7 67.05 13.012109375 68.6314453125 15.2 68.9 16.0787109375 68.8232421875 17.1 68.45 18.601171875 68.0181640625 20.65 68.35 21.011328125 68.4517578125 21.4 68.5 25.8318359375 68.601953125 30.75 67.3 35.3728515625 65.9033203125 39.5 63.7 46.591015625 59.8998046875 55.1 59.5 58.5904296875 59.30546875 61.9 58.35 68.2896484375 57.0869140625 69.65 51.15 70.2990234375 46.644921875 68 43.15 64.8623046875 38.65 64.75 29.45
L 63.95 10.35 Z"/>
</g>

<g id="Layer0_2_FILL">
<path fill="#99674F" stroke="none" d="
M 20.05 63.55
Q 19.9421875 63.3958984375 19.75 63.35 15.24453125 62.5373046875 12.3 66.75 12.272265625 66.8123046875 12.25 66.85 12.1962890625 66.955859375 12.2 67.05 12.41484375 67.0427734375 12.65 67 12.691015625 67.287109375 12.8 67.55 13.0013671875 67.4880859375 13.1 67.3 15.6552734375 63.6623046875 19.55 64.35 19.75390625 64.3775390625 19.9 64.25 20.104296875 64.1421875 20.15 63.95 20.177734375 63.74609375 20.05 63.55
M 3.3 60.75
Q 3.4783203125 60.9453125 3.65 61.1 3.65 61.35 3.7 61.55 3.70546875 61.5955078125 3.7 61.65 3.7556640625 61.6369140625 3.8 61.6 4.0076171875 61.5892578125 4.1 61.4 5.153515625 59.80859375 7.45 58.9 7.6666015625 58.844921875 7.75 58.65 7.8419921875 58.4642578125 7.75 58.25 7.6951171875 58.08359375 7.5 58 7.3140625 57.908203125 7.1 57.95 4.5095703125 58.9673828125 3.3 60.75
M 15.75 61.25
Q 15.9580078125 61.201953125 16.05 61 16.1783203125 60.8501953125 16.1 60.65 16.0896484375 60.4421875 15.9 60.3 15.7498046875 60.209375 15.55 60.25 10.4306640625 61.417578125 8.7 65.8
L 8.7 65.85
Q 8.7064453125 65.9001953125 8.7 65.95 8.89375 65.9552734375 9.1 65.95
L 9.15 66.05
Q 9.24453125 66.2705078125 9.4 66.45 9.59453125 66.366796875 9.65 66.15 11.1837890625 62.2791015625 15.75 61.25
M 10.65 60.75
Q 10.8765625 60.718359375 11 60.55 11.1267578125 60.3822265625 11.1 60.15 11.0685546875 59.9732421875 10.9 59.85 10.732421875 59.7232421875 10.5 59.75 7.713671875 60.078125 5.6 64.25 5.8083984375 64.38125 6 64.5 6.069921875 64.7798828125 6.25 65 6.4107421875 64.9416015625 6.5 64.75 8.3083984375 61.1189453125 10.65 60.75 Z"/>
</g>

<path id="Layer0_1_1_STROKES" stroke="#99674F" stroke-width="2" stroke-linejoin="round" stroke-linecap="round" fill="none" d="
M 55.65 51.8
Q 63.55 46.6 59.8 40.1"/>
</defs>

<g id="Layer_1">
<g transform="matrix( 1, 0, 0, 1, 0,0) ">
<use xlink:href="#Layer0_0_FILL"/>
</g>

<g transform="matrix( 1, 0, 0, 1, 0,0) ">
<use xlink:href="#Layer0_1_1_STROKES"/>
</g>

<g transform="matrix( 1, 0, 0, 1, 0,0) ">
<use xlink:href="#Layer0_2_FILL"/>
</g>
</g>
</svg>

<svg xmlns="http://www.w3.org/2000/svg" xmlns:xlink="http://www.w3.org/1999/xlink" preserveAspectRatio="none" viewBox="0 0 72 72"><defs><path id="a" fill="#CC9970" d="M63.95 10.35q-.403-3.968-2.15-4.5-8.317-1.96-16.1 0-2.755.929-2.95 5.35l-.45 18.45q.224 7.378-8.85 14.05l-7.2 6.3q-5.612 4.621-10.2 4.7-4.552.077-6 .3-1.434.236-2.15.6-.672.348-1.35.6-.666.304-2.15.25-1.487-.004-1.85 1.65-.368 1.713 1.15 3.05-.046 1.888 2.35 3.4.406 1.492 3.15 1.4v.15q.534 1.459 3.5.95.312 1.581 2.5 1.85.879-.077 1.9-.45 1.501-.432 3.55-.1.361.102.75.15 4.432.102 9.35-1.2 4.623-1.397 8.75-3.6 7.091-3.8 15.6-4.2 3.49-.195 6.8-1.15 6.39-1.263 7.75-7.2.649-4.505-1.65-8-3.138-4.5-3.25-13.7l-.8-19.1z"/><path id="c" fill="#99674F" d="M20.05 63.55q-.108-.154-.3-.2-4.505-.813-7.45 3.4-.028.062-.05.1-.054.106-.05.2.215-.007.45-.05.041.287.15.55.201-.062.3-.25 2.555-3.638 6.45-2.95.204.028.35-.1.204-.108.25-.3.028-.204-.1-.4M3.3 60.75q.178.195.35.35 0 .25.05.45.005.046 0 .1.056-.013.1-.05.208-.01.3-.2 1.054-1.591 3.35-2.5.217-.055.3-.25.092-.186 0-.4-.055-.166-.25-.25-.186-.092-.4-.05-2.59 1.017-3.8 2.8m12.45.5q.208-.048.3-.25.128-.15.05-.35-.01-.208-.2-.35-.15-.09-.35-.05-5.12 1.168-6.85 5.55v.05q.006.05 0 .1.194.005.4 0l.05.1q.095.22.25.4.195-.083.25-.3 1.534-3.87 6.1-4.9m-5.1-.5q.227-.032.35-.2.127-.168.1-.4-.031-.177-.2-.3-.168-.127-.4-.1-2.786.328-4.9 4.5l.4.25q.07.28.25.5.16-.058.25-.25 1.808-3.631 4.15-4z"/><path id="b" fill="none" stroke="#99674F" stroke-linecap="round" stroke-linejoin="round" stroke-width="2" d="M55.65 51.8q7.9-5.2 4.15-11.7"/></defs><use xlink:href="#a"/><use xlink:href="#b"/><use xlink:href="#c"/></svg>
